file/dell.svg

<svg clip-rule="evenodd" fill-rule="evenodd" stroke-linejoin="round" stroke-miterlimit="1.41421" viewBox="0 0 560 400" xmlns="http://www.w3.org/2000/svg"><path d="m33.479 27.059-8.942 6.879c-.917-3.44-3.899-5.963-7.568-5.963h-6.42v15.822h6.42c3.669 0 6.879-2.523 7.566-5.963l8.944 6.879 8.943-6.879v5.963h10.088v-3.211h-6.648v-12.611h-3.67v5.961l-8.484 6.881-1.835-1.606 4.129-3.211 4.355-3.44-2.522-2.062-8.484 6.648-1.834-1.605 8.484-6.42-2.523-2.063zm-19.49 4.125h2.752c.573 0 1.133.131 1.648.367.516.237.988.58 1.389 1.01s.732.945.961 1.525c.229.581.357 1.227.357 1.914 0 .631-.114 1.247-.326 1.817-.211.57-.519 1.093-.906 1.537s-.852.81-1.379 1.064c-.527.255-1.113.397-1.744.397h-2.752zm49.987 9.403v3.21h-10.089v-15.822h3.669v12.611h6.42zm-27.976-40.587c-19.72 0-36 16.28-36 36s16.051 36 36 36 36-16.051 36-36-16.28-36-36-36zm0 3.67c2.236 0 4.417.224 6.523.654 2.107.43 4.14 1.064 6.075 1.881 1.934.817 3.772 1.818 5.492 2.979 1.719 1.16 3.321 2.481 4.783 3.943s2.782 3.064 3.943 4.783c1.161 1.72 2.162 3.558 2.979 5.492.817 1.935 1.451 3.968 1.881 6.075.43 2.106.654 4.288.654 6.523 0 2.236-.224 4.417-.654 6.524-.43 2.106-1.064 4.139-1.881 6.074-.817 1.934-1.818 3.772-2.979 5.492-1.16 1.72-2.481 3.321-3.943 4.783s-3.063 2.783-4.783 3.944c-1.72 1.16-3.558 2.161-5.492 2.978-1.935.817-3.968 1.451-6.075 1.881-2.106.43-4.287.654-6.523.654s-4.417-.224-6.523-.654c-2.107-.427-4.14-1.061-6.075-1.878-1.934-.817-3.772-1.818-5.492-2.979-1.72-1.16-3.321-2.481-4.783-3.943s-2.783-3.063-3.944-4.783-2.161-3.558-2.978-5.492c-.817-1.935-1.451-3.968-1.881-6.075-.43-2.106-.655-4.287-.655-6.523s.225-4.417.655-6.523c.43-2.107 1.064-4.14 1.881-6.075.817-1.934 1.817-3.772 2.978-5.492s2.482-3.321 3.944-4.783 3.063-2.783 4.783-3.944c1.72-1.16 3.558-2.161 5.492-2.978 1.935-.817 3.968-1.451 6.075-1.881 2.106-.43 4.287-.654 6.523-.654z" fill="#007db8" fill-rule="nonzero" transform="matrix(4.16667 0 0 4.16667 130 49.9996)"/></svg>

<?xml version="1.0" encoding="UTF-8" standalone="no"?>
<!DOCTYPE svg PUBLIC "-//W3C//DTD SVG 1.1//EN" "http://www.w3.org/Graphics/SVG/1.1/DTD/svg11.dtd">
<svg width="100%" height="100%" viewBox="0 0 560 400" version="1.1" xmlns="http://www.w3.org/2000/svg" xmlns:xlink="http://www.w3.org/1999/xlink" xml:space="preserve" xmlns:serif="http://www.serif.com/" style="fill-rule:evenodd;clip-rule:evenodd;stroke-linejoin:round;stroke-miterlimit:1.41421;">
    <g transform="matrix(4.16667,0,0,4.16667,130,49.9996)">
        <path d="M33.479,27.059L24.537,33.938C23.62,30.498 20.638,27.975 16.969,27.975L10.549,27.975L10.549,43.797L16.969,43.797C20.638,43.797 23.848,41.274 24.535,37.834L33.479,44.713L42.422,37.834L42.422,43.797L52.51,43.797L52.51,40.586L45.862,40.586L45.862,27.975L42.192,27.975L42.192,33.936L33.708,40.817L31.873,39.211L36.002,36L40.357,32.56L37.835,30.498L29.351,37.146L27.517,35.541L36.001,29.121L33.478,27.058L33.479,27.059ZM13.989,31.184L16.741,31.184C17.314,31.184 17.874,31.315 18.389,31.551C18.905,31.788 19.377,32.131 19.778,32.561C20.179,32.991 20.51,33.506 20.739,34.086C20.968,34.667 21.096,35.313 21.096,36C21.096,36.631 20.982,37.247 20.77,37.817C20.559,38.387 20.251,38.91 19.864,39.354C19.477,39.798 19.012,40.164 18.485,40.418C17.958,40.673 17.372,40.815 16.741,40.815L13.989,40.815L13.989,31.184L13.989,31.184ZM63.976,40.587L63.976,43.797L53.887,43.797L53.887,27.975L57.556,27.975L57.556,40.586L63.976,40.586L63.976,40.587ZM36,0C16.28,0 0,16.28 0,36C0,55.72 16.051,72 36,72C55.949,72 72,55.949 72,36C72,16.051 55.72,0 36,0ZM36,3.67C38.236,3.67 40.417,3.894 42.523,4.324C44.63,4.754 46.663,5.388 48.598,6.205C50.532,7.022 52.37,8.023 54.09,9.184C55.809,10.344 57.411,11.665 58.873,13.127C60.335,14.589 61.655,16.191 62.816,17.91C63.977,19.63 64.978,21.468 65.795,23.402C66.612,25.337 67.246,27.37 67.676,29.477C68.106,31.583 68.33,33.765 68.33,36C68.33,38.236 68.106,40.417 67.676,42.524C67.246,44.63 66.612,46.663 65.795,48.598C64.978,50.532 63.977,52.37 62.816,54.09C61.656,55.81 60.335,57.411 58.873,58.873C57.411,60.335 55.81,61.656 54.09,62.817C52.37,63.977 50.532,64.978 48.598,65.795C46.663,66.612 44.63,67.246 42.523,67.676C40.417,68.106 38.236,68.33 36,68.33C33.764,68.33 31.583,68.106 29.477,67.676C27.37,67.249 25.337,66.615 23.402,65.798C21.468,64.981 19.63,63.98 17.91,62.819C16.19,61.659 14.589,60.338 13.127,58.876C11.665,57.414 10.344,55.813 9.183,54.093C8.022,52.373 7.022,50.535 6.205,48.601C5.388,46.666 4.754,44.633 4.324,42.526C3.894,40.42 3.669,38.239 3.669,36.003C3.669,33.767 3.894,31.586 4.324,29.48C4.754,27.373 5.388,25.34 6.205,23.405C7.022,21.471 8.022,19.633 9.183,17.913C10.344,16.193 11.665,14.592 13.127,13.13C14.589,11.668 16.19,10.347 17.91,9.186C19.63,8.026 21.468,7.025 23.402,6.208C25.337,5.391 27.37,4.757 29.477,4.327C31.583,3.897 33.764,3.673 36,3.673L36,3.67Z" style="fill:rgb(0,125,184);fill-rule:nonzero;"/>
    </g>
</svg>
